X: 29
T: Black Joak
%R: jig
B: Daniel Wright "Wright's Compleat Collection of Celebrated Country Dances" 1740 p.15
S: http://library.efdss.org/cgi-bin/dancebooks.cgi
Z: 2014 John Chambers <jc:trillian.mit.edu>
M: 6/4
L: 1/4
K: G
% - - - - - - - - - - - - - - - - - - - - - - - - -
[|\
D>EF G2G | A>BA AGA |\
B>cB BAG | A>BA AGF |\
G3 E3 | D>EF G3 |]|\
B2c d2d | e>fg d2c |
B>cd d>ed | e>fg d>cB |\
c2a B2g | A>BA AGA |\
B>cB BAG | A>BA AGF |\
G3 E3 | D>EF G3 |]
% - - - - - - - - - - - - - - - - - - - - - - - - -
%%begintext align
%% Hands round, all four quite round, Hands
%% round, all four back again, clap Hands with
%% your Partner, clap Sides and Right and Left
%% half round, then lead down and lead up, clap
%% Hands with your Partner and Right & Left
%% quite round at Top.
%%endtext
% - - - - - - - - - - - - - - - - - - - - - - - - -
%%sep 2 4 300
